X: 37582
T: Smile And Wave
R: slip jig
M: 9/8
K: Dmajor
|:FAB d2e ~f3|FAB d2f edB|FAB d2e f2g|afe ded BAF:|
|:~A3 c2d e3|~A3 c2e dcA|~A3 c2d e2f|gfe ded cAG:|

